X: 6
T: The Man Of The House
R: reel
M: 4/4
L: 1/8
K: Edor
|: E2 BE GABG | E2 BE FDAD | E2 BE GABc | dBAF BEED |
E2 BE GABG | E2 BE FDAD | E2 BE GABc | dBAF BE E2||
|: efge fgaf | gfed Bded | efge fgaf | gfed Be e2 |
ef (3gfe fgaf | gfed efga | bgaf gfed | edBA GBFB ||


Tune 222	Setting 29276

